X: 86
T:Monaghan Jig
R:Jig
C:Trad, arr Phil Ro
S:Nottingham Music Database
M:6/8
L:1/8
Q:3/8=120
K:Em
c|:BGE F2E|BGE FGA|BGE F2E|AFD FGA|
BGE F2E|BGE FGA|dcB ABG|FDF AGF:|
|:EGB efg|fed edB|EGB dBG|FDF AGF|
EGB efg|EGB dBG|dcB ABG|FDF AGF:|
|:g2e efe|geg bge|g2e efg|fdf agf|
g2e efe|g2e efg|dcB ABG|FDF AGF:|
